X: 7624
T: Coinleach Glas An Fhómhair
R: reel
M: 4/4
K: Dminor
C|DDF2D2FF|CCF2D3F|B,B,F2D2F/E/C|DDF2D3||$
C|D3DC3D|F3GA3F|A3{FG}FG3G|D3DC3C|$
D3DC3D|F3GA3{A}G|A3{G/}FG3A|D4D3||$
A|c3cd3{e/}d/c/|G3Ac3{c/}d/c/|A3FG3A/G/|D4C3C|$
D3DC3D|F3GA3F/G/|A3{G/}A/F/G3!trill!A/F/|D3D!fermata!D3||$

